src/icons/folder.vs.close.svg

<?xml version="1.0" encoding="UTF-8" standalone="no"?>
<!DOCTYPE svg PUBLIC "-//W3C//DTD SVG 1.1//EN" "http://www.w3.org/Graphics/SVG/1.1/DTD/svg11.dtd">
<!-- Created with Vectornator (http://vectornator.io/) -->
<svg height="100%" stroke-miterlimit="10" style="fill-rule:nonzero;clip-rule:evenodd;stroke-linecap:round;stroke-linejoin:round;" version="1.1" viewBox="0 0 32 32" width="100%" xml:space="preserve" xmlns="http://www.w3.org/2000/svg" xmlns:xlink="http://www.w3.org/1999/xlink">
<defs/>
<clipPath id="ArtboardFrame">
<rect height="32" width="32" x="0" y="0"/>
</clipPath>
<g clip-path="url(#ArtboardFrame)" id="Untitled">
<g opacity="0">
<path d="M20.2662 30.3302C20.2662 30.6331 20.539 30.8786 20.8756 30.8786L28.1883 30.8786C28.5248 30.8786 28.7977 30.6331 28.7977 30.3302C28.7977 30.2151 28.755 30.1054 28.688 30.0177L25.1413 24.4905L25.1413 22.1053L23.9225 22.1053L23.9225 24.4905L20.3759 30.0177C20.3088 30.1054 20.2662 30.2151 20.2662 30.3302M20.8756 31.9752C19.8659 31.9752 19.0474 31.2387 19.0474 30.3302C19.0474 30.0012 19.1571 29.6942 19.3521 29.4365L22.7037 24.1944L22.7037 23.2019C22.3672 23.2019 22.0943 22.9564 22.0943 22.6536L22.0943 22.1053C22.0943 21.4996 22.64 21.0086 23.3131 21.0086L25.7507 21.0086C26.4238 21.0086 26.9695 21.4996 26.9695 22.1053L26.9695 22.6536C26.9695 22.9564 26.6967 23.2019 26.3601 23.2019L26.3601 24.1944L29.7118 29.4365C29.9068 29.6942 30.0165 30.0012 30.0165 30.3302C30.0165 31.2387 29.1979 31.9752 28.1883 31.9752L20.8756 31.9752M19.9663 30.0118L23.1221 24.9457L23.4849 22.9653L23.5577 21.8619L24.7893 21.4798L25.7917 21.7965L25.8721 23.4641L26.0119 24.8635L27.6465 27.0684L29.2542 29.4428L29.6458 30.7934L27.6581 31.5148C27.6581 31.5148 21.0005 31.47 20.9739 31.47C20.9473 31.47 19.9042 30.836 19.9042 30.836L19.9663 30.0118Z" fill="#bf98e6" fill-rule="nonzero" opacity="1" stroke="none"/>
</g>
<path d="M27.6321 21.0147L22.8097 25.4486L20.1148 23.4173L19.001 24.0655L21.6575 26.5066L19.001 28.9477L20.1148 29.5978L22.8097 27.5665L27.6321 31.9985L29.9846 30.8559L29.9846 22.1574L27.6321 21.0147ZM27.6321 23.9309L27.6321 29.0821L24.2138 26.5064L27.6321 23.9309Z" fill="#2196f3" fill-rule="nonzero" opacity="1" stroke="none"/>
<g opacity="0">
<path d="M26.3228 30.3496L27.6313 31.9968L31.9923 26.5075L27.6313 21.0174L26.3228 22.6654L29.3765 26.5075L26.3228 30.3496ZM24.687 22.6654L23.3785 21.0174L19.0175 26.5075L23.3785 31.9976L24.687 30.3503L21.6333 26.5075L24.687 22.6654Z" fill="#88cc7e" fill-rule="nonzero" opacity="1" stroke="none"/>
</g>
<path d="M15 4.03125L13 8.03125C13 8.03125 6 8.02025 6 8.03125C4.827 8.03125 4 8.84125 4 10.0312L4 16.0312L0 16.0312L6 26.0312L16.0312 26.0312L16.0312 21C16.0312 19.3431 17.3744 18 19.0312 18L23.1875 18L22 16.0312L6 16.0312L6 10.0312L14 10.0312L16 6.03125L28 6.03125L28 18L30 18L30 6.03125C30 4.92625 29.104 4.03125 28 4.03125C28 4.03125 15 4.03125 15 4.03125Z" fill="#e5c07b" fill-rule="nonzero" opacity="0" stroke="none"/>
<path d="M15 4.03125L12.9688 8C12.9688 8 6 8.02025 6 8.03125C4.828 8.03125 3.96875 8.84125 3.96875 10.0312L4 24C4 25.194 4.82125 26.0313 6.03125 26.0312L16.0312 26.0312L16.0312 21C16.0312 19.3431 17.3744 18 19.0312 18L30 18L30 6C30.0013 5.47049 29.7807 4.96817 29.4062 4.59375C29.0318 4.21933 28.5295 4.02992 28 4.03125L15 4.03125ZM16 6.03125L28 6.03125L28 8L15 8L16 6.03125Z" fill="#e5c07b" fill-rule="nonzero" opacity="1" stroke="none"/>
<path d="M28.004 4.02046C28.5335 4.01912 29.0417 4.22888 29.4162 4.60331C29.7906 4.97773 30.0003 5.48594 29.999 6.01546L29.992 24.0225C29.992 25.1795 29.168 26.0205 28.004 26.0205L28.004 6.02046L16.004 6.02046L14.994 8.01246L29.038 8.00246L28.004 26.0205L6.01701 26.0205C4.80701 26.0205 3.98601 25.2075 3.98601 24.0135L3.98001 10.0435C3.98001 8.85346 4.83401 8.01946 6.00601 8.01946C6.00601 8.00846 12.974 7.98746 12.974 7.98746L15.006 4.01946L28.006 4.01946L28.004 4.02046Z" fill="#4d9be9" fill-rule="nonzero" opacity="0" stroke="none"/>
<path d="M28.0111 4.03889C29.1151 4.03889 30.0061 4.92889 30.0061 6.03389L30.0111 24.0389C30.034 24.576 29.8306 25.0981 29.4505 25.4783C29.0703 25.8584 28.5482 26.0618 28.0111 26.0389L28.0111 6.03889L16.0111 6.03889L14.0111 10.0389L6.01108 10.0389L6.01108 16.0389L22.0111 16.0389L28.0111 26.0389L6.01108 26.0389L0.0110843 16.0389L4.01108 16.0389L4.01108 10.0389C4.01108 8.84889 4.83808 8.03889 6.01108 8.03889C6.01108 8.02789 13.0111 8.03889 13.0111 8.03889L15.0111 4.03889C15.0111 4.03889 28.0111 4.03889 28.0111 4.03889Z" fill="#4d9be9" fill-rule="nonzero" opacity="0" stroke="none"/>
<path d="M27.2095 16.0113L21.521 21.2416L18.342 18.8454L17.0282 19.6101L20.1618 22.4896L17.0282 25.3691L18.342 26.1361L21.521 23.7399L27.2095 28.9679L29.9846 27.6201L29.9846 17.3592L27.2095 16.0113ZM27.2095 19.4512L27.2095 25.5277L23.1773 22.4894L27.2095 19.4512Z" fill="#2196f3" fill-rule="nonzero" opacity="0" stroke="none"/>
<path d="M19.0227 18.0053L32.3696 18.0053C34.0265 18.0053 35.3696 19.3485 35.3696 21.0053L35.3696 32.2732C35.3696 33.93 34.0265 35.2732 32.3696 35.2732L19.0227 35.2732C17.3658 35.2732 16.0227 33.93 16.0227 32.2732L16.0227 21.0053C16.0227 19.3485 17.3658 18.0053 19.0227 18.0053Z" fill="#4d9be9" fill-rule="nonzero" opacity="0" stroke="none"/>
</g>
</svg>

<svg xmlns="http://www.w3.org/2000/svg" xml:space="preserve" stroke-linecap="round" stroke-linejoin="round" stroke-miterlimit="10" clip-rule="evenodd" viewBox="0 0 32 32">
  <clipPath id="a">
    <path d="M0 0h32v32H0z"/>
  </clipPath>
  <g clip-path="url(#a)">
    <path fill="#2196f3" d="m27.632 21.015-4.822 4.434-2.695-2.032-1.114.648 2.656 2.442-2.656 2.44 1.114.65 2.695-2.03 4.822 4.431 2.353-1.142v-8.699l-2.353-1.142Zm0 2.916v5.151l-3.418-2.576 3.418-2.575Z"/>
    <path fill="#e5c07b" d="M15 4.031 12.969 8S6 8.02 6 8.031c-1.172 0-2.031.81-2.031 2L4 24c0 1.194.821 2.031 2.031 2.031h10V21a3 3 0 0 1 3-3H30V6a1.987 1.987 0 0 0-.594-1.406A1.957 1.957 0 0 0 28 4.03H15Zm1 2h12V8H15l1-1.969Z"/>
  </g>
</svg>
